!! 00000] TT[WS
!!!OTL: Mai ronghua
!!!ARE: Asia, China,ÿShanxi Wenshui
!! Ethnic Group: Han
!! WI, 59
!!!SCT: J0066
!!!YEM: Copyright 1995, estate of Helmut Schaffrath.
**kern
*ICvox
*Ivox
*M2/4
*k[]
*C:
{8B
16A
16G
16E
16E
16E
16G
=1
8.A
16B
4A
=2
8e
8e
8d
16d
16e
=3
8c
16B
16A
4G}
=4
{8d
8e
16e
16d
8c
=5
16e
16g
16d
16c
16B
16A
8G
=6
8e
16d
16A
8B
16d
16A
=7
4G
4G}
=8
{8B
16d
16e
8G
8G
=9
8c
8c
8e
16d
16e
=10
8A
16A
16G
8E
16D
16E
=11
8.G
16B
16A
16B
8A}
=12
{8d
16e
16g
16e
16d
8c
=13
8e
16d
16c
16B
16A
8G
=14
8e
16d
16A
8B
16d
16A
=15
4G
4G}
==
!!!AGN: Xiaodiao. Maimai
!!!ONB: ESAC (Essen Associative Code) Database: CHINA
!!!AMT: simple duple
!!!AIN: vox
!!!EED: Helmut Schaffrath
!!!EEV: 1.0
*-
